src/assets/wed_icon/icon_28/people_default.svg

<svg width="28" height="28" viewBox="0 0 28 28" fill="none" xmlns="http://www.w3.org/2000/svg">
<path fill-rule="evenodd" clip-rule="evenodd" d="M14 12.5C11.5147 12.5 9.5 10.4853 9.5 8C9.5 5.51472 11.5147 3.5 14 3.5C16.4853 3.5 18.5 5.51472 18.5 8C18.5 10.4853 16.4853 12.5 14 12.5ZM14 14C10.6863 14 8 11.3137 8 8C8 4.68629 10.6863 2 14 2C17.3137 2 20 4.68629 20 8C20 11.3137 17.3137 14 14 14Z" fill="#A9AABC"/>
<path fill-rule="evenodd" clip-rule="evenodd" d="M22.5 24.0036V20.9424C22.5 20.0466 21.9962 19.2271 21.1969 18.8226C16.6721 16.5331 11.3279 16.5331 6.80306 18.8226C6.00382 19.2271 5.5 20.0466 5.5 20.9424V24.0036C5.5 24.3111 5.77483 24.5457 6.07846 24.4974L9.05701 24.0242C12.3318 23.5038 15.6682 23.5038 18.943 24.0242L21.9215 24.4974C22.2252 24.5457 22.5 24.3111 22.5 24.0036ZM6.12582 17.4842C4.82194 18.144 4 19.4811 4 20.9424V24.0036C4 25.2334 5.09933 26.1718 6.31384 25.9788L9.29239 25.5056C12.4112 25.01 15.5888 25.01 18.7076 25.5056L21.6862 25.9788C22.9007 26.1718 24 25.2334 24 24.0036V20.9424C24 19.4811 23.1781 18.144 21.8742 17.4842C16.9236 14.9792 11.0764 14.9792 6.12582 17.4842Z" fill="#A9AABC"/>
</svg>

<svg xmlns="http://www.w3.org/2000/svg" width="28" height="28" fill="none"><path fill="#A9AABC" fill-rule="evenodd" d="M14 12.5a4.5 4.5 0 1 1 0-9 4.5 4.5 0 0 1 0 9m0 1.5a6 6 0 1 1 0-12 6 6 0 0 1 0 12M22.5 24.004v-3.062c0-.895-.504-1.715-1.303-2.12a15.94 15.94 0 0 0-14.394 0 2.38 2.38 0 0 0-1.303 2.12v3.062a.5.5 0 0 0 .578.493l2.979-.473c3.275-.52 6.611-.52 9.886 0l2.979.473a.5.5 0 0 0 .578-.493m-16.374-6.52A3.88 3.88 0 0 0 4 20.942v3.062a2 2 0 0 0 2.314 1.975l2.978-.473a30 30 0 0 1 9.416 0l2.978.473A2 2 0 0 0 24 24.004v-3.062a3.88 3.88 0 0 0-2.126-3.458 17.44 17.44 0 0 0-15.748 0" clip-rule="evenodd"/></svg>
